svg/fluentui-system-icons/ic_fluent_call_warning_20_filled.svg

<svg width="20" height="20" viewBox="0 0 20 20" fill="none" xmlns="http://www.w3.org/2000/svg">
<path d="M12.6029 1.55356L9.10678 8.55202C8.77438 9.21741 9.2583 10 10.0022 10H16.9978C17.7419 10 18.2258 9.21709 17.893 8.55167L14.3935 1.55322C14.0246 0.815436 12.9716 0.815638 12.6029 1.55356ZM13.9983 3.49509V6.49741C13.9983 6.77376 13.7743 6.99779 13.4979 6.99779C13.2215 6.99779 12.9975 6.77376 12.9975 6.49741V3.49509C12.9975 3.21873 13.2215 2.9947 13.4979 2.9947C13.7743 2.9947 13.9983 3.21873 13.9983 3.49509ZM13.4979 8.99934C13.2215 8.99934 12.9975 8.77531 12.9975 8.49895C12.9975 8.2226 13.2215 7.99857 13.4979 7.99857C13.7743 7.99857 13.9983 8.2226 13.9983 8.49895C13.9983 8.77531 13.7743 8.99934 13.4979 8.99934ZM6.53544 2.11656C5.49406 1.85275 4.40494 1.96498 3.55101 2.44275C2.68184 2.92905 2.07166 3.79026 2.04156 4.94418C1.99456 6.74553 2.41207 9.16306 4.06815 12.002C5.70298 14.8046 7.50831 16.4843 9.0056 17.4831C9.95159 18.1142 10.9973 18.1309 11.8903 17.7193C12.7694 17.3143 13.4838 16.5057 13.8548 15.5027C14.0415 14.9979 13.9975 14.4366 13.7345 13.9669L12.781 12.2642C12.1747 11.1814 10.8657 10.7073 9.70661 11.1507L9.04092 11.4054C8.71835 11.5288 8.42164 11.4719 8.25304 11.3063C7.68784 10.7512 7.28407 9.99735 7.10089 9.18533C7.04329 8.92998 7.1603 8.62804 7.44299 8.4147L8.04412 7.96105C9.04934 7.20245 9.33337 5.81457 8.70699 4.72205L7.73513 3.02697C7.47512 2.57348 7.04218 2.24493 6.53544 2.11656Z" fill="#212121"/>
</svg>

<svg xmlns="http://www.w3.org/2000/svg" width="20" height="20"><path d="M12.603 1.554 9.107 8.552A1 1 0 0 0 10.002 10h6.996a1 1 0 0 0 .895-1.448l-3.5-6.999a1 1 0 0 0-1.79 0Zm1.395 1.941v3.002a.5.5 0 1 1-1 0V3.495a.5.5 0 1 1 1 0ZM13.498 9a.5.5 0 1 1 0-1 .5.5 0 0 1 0 1ZM6.535 2.117c-1.04-.264-2.13-.152-2.984.326-.87.486-1.48 1.347-1.51 2.501-.046 1.802.371 4.22 2.027 7.058 1.635 2.803 3.44 4.482 4.938 5.481.946.631 1.991.648 2.884.236.88-.405 1.594-1.213 1.965-2.216a1.838 1.838 0 0 0-.12-1.536l-.954-1.703a2.5 2.5 0 0 0-3.074-1.113l-.666.254c-.323.124-.62.067-.788-.099-.565-.555-.969-1.309-1.152-2.12-.058-.256.06-.558.342-.771l.601-.454a2.5 2.5 0 0 0 .663-3.239l-.972-1.695a1.929 1.929 0 0 0-1.2-.91Z"/></svg>
